X:07066
T:"The Little Yellow Boy" (doublejig) 0706
C:after Chief Daniel Francis O'Neill
B:O'Neill's Music Of Ireland (The 1850) Lyon & Healy, Chicago, 1903 edition
Z:FROM O'NEILL'S TO NOTEWORTHY, FROM NOTEWORTHY TO ABC, MIDI AND .TXT BY VINCE
BRENNAN June 2003 (HTTP://WWW.SOSYOURMOM.COM)
I:abc2nwc
M:6/8
L:1/8
K:D
AFD DFA|DFA AdB|AFD DFA|B2A BdB|
AFD DFA|DFA ABc|def gfe|fdB B2c:|
|:Add fdd|edd fdd|Add fdd|edB B2d|
Add fdd|edd fdd|gfe fdB|AFA B2d:|
